X:3017
T:Springlek efter Omas (Hållhans) Per Nilsson
R:Springlek
O:Berga, Transtrands sn. Dalarna
S:efter Omas Per
B:EÖ nr 385
Z:Nils L
M:3/4
L:1/8
U:t=turn
K:Am
"^(*)"t[c2E2] [G2G,2] c>d | e>f gf/g/ a2 | f>a gf/g/ af | de cB/c/ d>(B |
c2) G2 c>d | ef gf/g/ a2 | fa gf/g/ a>f | [fd]2 [fd]2 [ce]2 ::
Pc>B c>e g>e | d>e cB/c/ d2 | c>B ce g>e | de cB/c/ d2 |
{/B}t[c2E2] [G2G,2] cd | ef gf/g/ af/a/ | g2 ec e>d | Bd/c/ A4 :|
M:None
V:1 clef=none
"^(*)"
(c//d//c//B//c) 
(:musicend:)
(:music:)
